X: 385
T: Sr Sydney Smiths triumph
%R: reel
Z: 2014 John Chambers <jc:trillian.mit.edu>
B: Preston "Twenty four Country Dances for the Year 1800" p.173 #1
F: http://www.vwml.org/browse/browse-collections-dance-tune-books/browse-prestons1800# 2014-8-10
M: C|
L: 1/8
K: D
A, |\
D>EDF G2GB | AdAF E2A,2 |\
D>EDF G2GB | edef d3 :|
|: a |\
fdge fdcd | efgf e2ag |\
fd AF G2GB | edef d3 :|
% - - - - - - - - - - - - - - - - - - - - - - - - -
%%begintext align
%% Right hands across .| Left back again :|
%% lead down two Cu: :|. up again and cast off :|:
%%endtext
% - - - - - - - - - - - - - - - - - - - - - - - - -

%%sep 1 1 500
%%sep 1 1 500
